X: 1315
T: The Old Pensioner
R:Reel
N:Collected by McFadden
B:O'Neill's 1315
Z:Transcribed by Trish O'Neil
M:C|
L:1/8
K:D
(3ABc|:"(S)"d2(3cBA BEEG|(3FED (AD) FABc|dB (3cBA BEEA|1Bged cABc:|2Bgec"H"d2||
(3ABc|d2(fd) adfd|ddfd cdec|d2(fd) adfd|dBAF EFAc|d2(fd) adfd|(3ddd (fd)
 cdec|defd cdec|dBAF EF "DC al (S)"(3ABc|]


